X:333
T:It Was On a Friday Morning
B:Joyce, P. W.; "Old Irish Folk Music and Songs"
R:song air
A:Antrim
O:Irish
L:1/8
M:C
K:D
((3FGA)|\
B2 B>A F2 DE|F2 E>E E3 A|B2 B>B e2 e>c|dcBA d3 A|
B2 BB e2 ec|dB AF D2 ((3FGA)|B2 B>A F2 D>E|F2 E>E E2||
